src/main/resources/icons/GradleIcons/icons/gradleNavigate_dark.svg

<svg xmlns="http://www.w3.org/2000/svg" width="16" height="16" viewBox="0 0 16 16">
  <g fill="none" fill-rule="evenodd">
    <g fill="#AFB1B3" transform="rotate(180 3.5 8)">
      <polygon points="2.765 .729 4.765 .729 4.765 5.729 2.765 5.729" transform="rotate(45 3.765 3.23)"/>
      <polygon points="0 2 5 7 0 7"/>
    </g>
    <path fill="#AFB1B3" d="M1.82308534,8 C2.20517336,6.84528839 2.90104185,5.92172528 3.77462057,5.2999669 L4.6413618,6.79536783 C4.84954437,7.15402724 5.23345309,7.37416655 5.64815097,7.37267662 C5.84487236,7.3731092 6.03837076,7.32272458 6.20989888,7.22640431 L6.61603794,6.99921541 L6.63004274,6.99921541 C7.10930877,6.70093304 7.56129312,6.36090334 7.98072745,5.9830897 C8.02392313,5.94221119 8.04760802,5.88483315 8.04582466,5.8253879 C8.04404131,5.76594264 8.01695942,5.7100876 7.97139092,5.67187202 C7.88530915,5.60296497 7.76188981,5.60692495 7.68040239,5.68120856 C7.28189603,6.03491619 6.85398054,6.35403078 6.40129775,6.63509073 L5.99982695,6.85916745 L6.01694392,6.84671875 L5.99515868,6.85916745 C5.64987682,7.05368034 5.21234593,6.93353297 5.01482301,6.58996417 L4.09828695,5.00742229 C3.9961852,4.83293831 3.97173372,4.62369703 4.03085423,4.43037296 C4.08997474,4.2370489 4.22727547,4.07727313 4.40950463,3.98974049 C9.74999993,1.44397991 12.1028056,6.38300441 13.8658537,4.62151237 C14.3622287,4.15299809 14.4007051,3.37635519 13.9530692,2.86107283 C13.5054333,2.34579047 12.7310391,2.27530411 12.1977269,2.70129932 C12.1136442,2.76496192 11.9955202,2.7569985 11.9207432,2.68262626 L11.653096,2.4087547 C11.6104703,2.36821765 11.5863397,2.31196938 11.5863397,2.25314587 C11.5863397,2.19432235 11.6104703,2.13807408 11.653096,2.09753703 C12.5278532,1.28071953 13.8925778,1.30411874 14.7388193,2.15044403 C15.5635461,2.97517087 16.5003113,5.25950861 12.9368689,7.92508799 C11.9082945,8.69535174 11.547282,10.2327671 11.5254968,11.5710031 C11.5237957,11.6866648 11.429543,11.7795314 11.3138687,11.7795189 L10.3646548,11.7795189 C10.2585581,11.7787905 10.1693989,11.6996118 10.156139,11.5943444 C10.0611702,10.8753761 9.44819498,10.3380446 8.7229816,10.3380446 C8.46095624,10.3380446 8.21358283,10.4081897 8,10.5317031 L8,8 L1.82308534,8 Z M11.1053529,6.17604466 L11.1053529,6.17760075 C11.2668302,6.05809264 11.3229801,5.84207902 11.2401397,5.65906377 C11.1572993,5.47604852 10.9579447,5.37568695 10.7615925,5.41814755 C10.5652402,5.46060814 10.4251641,5.63437058 10.4253423,5.8352613 L11.1053529,6.17604466 Z"/>
  </g>
</svg>

<svg xmlns="http://www.w3.org/2000/svg" width="16" height="16" viewBox="0 0 16 16"><rect id="frame" width="16" height="16" fill="none"/><g fill="#AFB1B3" fill-rule="evenodd"><path d="M2.174 15.246L.759 13.83l3.536-3.535 1.414 1.414z"/><path d="M7 14L2 9h5z"/><path d="M1.823 8c.382-1.155 1.078-2.078 1.952-2.7l.866 1.495a1.16 1.16 0 0 0 1.569.431L6.616 7h.014c.48-.298.931-.638 1.35-1.016a.209.209 0 0 0-.009-.311.224.224 0 0 0-.29.01 9.382 9.382 0 0 1-1.28.953L6 6.86l.017-.012-.022.012a.722.722 0 0 1-.98-.269l-.917-1.583A.724.724 0 0 1 4.41 3.99c5.34-2.546 7.693 2.393 9.456.632a1.273 1.273 0 0 0-1.668-1.92.212.212 0 0 1-.277-.02l-.268-.273a.215.215 0 0 1 0-.311 2.22 2.22 0 0 1 3.086.052c.825.825 1.761 3.11-1.802 5.775-1.029.77-1.39 2.308-1.412 3.646a.212.212 0 0 1-.211.209h-.95a.212.212 0 0 1-.208-.186A1.446 1.446 0 0 0 8 10.532V8H1.823zm9.282-1.824v.002a.426.426 0 1 0-.68-.343l.68.341z"/></g></svg>
